packages/tokens/icons/zombie/size24Px.svg

<svg viewBox="0 0 24 24" fill="none" xmlns="http://www.w3.org/2000/svg" width="1em" height="1em"><path d="M19.5 13.7857C19.5 16.1153 18.3872 18.0409 16.8722 19.3951C15.3467 20.7586 13.461 21.5 12 21.5C10.5238 21.5 8.63772 20.8363 7.12197 19.5238C5.61869 18.2221 4.5 16.3008 4.5 13.7857C4.5 13.5643 4.49987 13.3468 4.49974 13.1333C4.49869 11.4092 4.49779 9.93835 4.56796 8.67853C4.64696 7.26031 4.81444 6.15757 5.149 5.30041C5.47652 4.46129 5.9639 3.85745 6.70765 3.42395C7.46816 2.98068 8.53102 2.69561 10.04 2.57173C10.7945 2.5098 11.49 3.16641 11.8249 4.13295C12.5787 6.30864 14.6178 7.46174 17.9562 7.77008C18.8305 7.85083 19.5 8.54115 19.5 9.35681V9.36446V9.37212V9.37978V9.38746V9.39514V9.40284V9.41054V9.41825V9.42597V9.4337V9.44144V9.44919V9.45695V9.46472V9.47249V9.48028V9.48807V9.49587V9.50368V9.5115V9.51933V9.52717V9.53502V9.54287V9.55073V9.55861V9.56649V9.57438V9.58227V9.59018V9.59809V9.60602V9.61395V9.62189V9.62984V9.63779V9.64576V9.65373V9.66171V9.6697V9.6777V9.6857V9.69372V9.70174V9.70977V9.71781V9.72585V9.7339V9.74197V9.75003V9.75811V9.7662V9.77429V9.78239V9.7905V9.79861V9.80674V9.81487V9.823V9.83115V9.8393V9.84746V9.85563V9.86381V9.87199V9.88018V9.88838V9.89658V9.90479V9.91301V9.92124V9.92947V9.93771V9.94596V9.95422V9.96248V9.97075V9.97902V9.9873V9.99559V10.0039V10.0122V10.0205V10.0288V10.0371V10.0455V10.0538V10.0622V10.0705V10.0789V10.0872V10.0956V10.104V10.1123V10.1207V10.1291V10.1375V10.1459V10.1544V10.1628V10.1712V10.1796V10.1881V10.1965V10.205V10.2134V10.2219V10.2304V10.2388V10.2473V10.2558V10.2643V10.2728V10.2813V10.2898V10.2983V10.3068V10.3154V10.3239V10.3324V10.341V10.3495V10.3581V10.3666V10.3752V10.3838V10.3924V10.4009V10.4095V10.4181V10.4267V10.4353V10.4439V10.4525V10.4612V10.4698V10.4784V10.487V10.4957V10.5043V10.513V10.5216V10.5303V10.5389V10.5476V10.5563V10.565V10.5736V10.5823V10.591V10.5997V10.6084V10.6171V10.6258V10.6345V10.6433V10.652V10.6607V10.6694V10.6782V10.6869V10.6957V10.7044V10.7132V10.7219V10.7307V10.7394V10.7482V10.757V10.7658V10.7745V10.7833V10.7921V10.8009V10.8097V10.8185V10.8273V10.8361V10.8449V10.8537V10.8626V10.8714V10.8802V10.889V10.8979V10.9067V10.9155V10.9244V10.9332V10.9421V10.9509V10.9598V10.9687V10.9775V10.9864V10.9953V11.0041V11.013V11.0219V11.0308V11.0396V11.0485V11.0574V11.0663V11.0752V11.0841V11.093V11.1019V11.1108V11.1197V11.1287V11.1376V11.1465V11.1554V11.1643V11.1733V11.1822V11.1911V11.2V11.209V11.2179V11.2269V11.2358V11.2447V11.2537V11.2626V11.2716V11.2805V11.2895V11.2985V11.3074V11.3164V11.3253V11.3343V11.3433V11.3522V11.3612V11.3702V11.3792V11.3881V11.3971V11.4061V11.4151V11.4241V11.4331V11.442V11.451V11.46V11.469V11.478V11.487V11.496V11.505V11.514V11.523V11.532V11.541V11.55V11.559V11.568V11.577V11.586V11.595V11.604V11.613V11.622V11.631V11.6401V11.6491V11.6581V11.6671V11.6761V11.6851V11.6942V11.7032V11.7122V11.7212V11.7302V11.7392V11.7483V11.7573V11.7663V11.7753V11.7843V11.7934V11.8024V11.8114V11.8204V11.8295V11.8385V11.8475V11.8565V11.8655V11.8746V11.8836V11.8926V11.9016V11.9107V11.9197V11.9287V11.9377V11.9468V11.9558V11.9648V11.9738V11.9828V11.9919V12.0009V12.0099V12.0189V12.0279V12.037V12.046V12.055V12.064V12.073V12.082V12.091V12.1001V12.1091V12.1181V12.1271V12.1361V12.1451V12.1541V12.1631V12.1721V12.1811V12.1901V12.1991V12.2081V12.2171V12.2261V12.2351V12.2441V12.2531V12.2621V12.2711V12.2801V12.2891V12.2981V12.3071V12.316V12.325V12.334V12.343V12.352V12.3609V12.3699V12.3789V12.3879V12.3968V12.4058V12.4148V12.4237V12.4327V12.4416V12.4506V12.4596V12.4685V12.4775V12.4864V12.4954V12.5043V12.5132V12.5222V12.5311V12.54V12.549V12.5579V12.5668V12.5758V12.5847V12.5936V12.6025V12.6114V12.6204V12.6293V12.6382V12.6471V12.656V12.6649V12.6738V12.6827V12.6915V12.7004V12.7093V12.7182V12.7271V12.736V12.7448V12.7537V12.7626V12.7714V12.7803V12.7891V12.798V12.8068V12.8157V12.8245V12.8334V12.8422V12.851V12.8599V12.8687V12.8775V12.8863V12.8951V12.9039V12.9128V12.9216V12.9304V12.9392V12.9479V12.9567V12.9655V12.9743V12.9831V12.9918V13.0006V13.0094V13.0181V13.0269V13.0356V13.0444V13.0531V13.0619V13.0706V13.0793V13.0881V13.0968V13.1055V13.1142V13.1229V13.1316V13.1403V13.149V13.1577V13.1664V13.1751V13.1837V13.1924V13.2011V13.2097V13.2184V13.2271V13.2357V13.2443V13.253V13.2616V13.2702V13.2789V13.2875V13.2961V13.3047V13.3133V13.3219V13.3305V13.3391V13.3477V13.3562V13.3648V13.3734V13.3819V13.3905V13.399V13.4076V13.4161V13.4246V13.4332V13.4417V13.4502V13.4587V13.4672V13.4757V13.4842V13.4927V13.5012V13.5096V13.5181V13.5266V13.535V13.5435V13.5519V13.5603V13.5688V13.5772V13.5856V13.594V13.6024V13.6108V13.6192V13.6276V13.636V13.6444V13.6527V13.6611V13.6695V13.6778V13.6861V13.6945V13.7028V13.7111V13.7194V13.7277V13.7361V13.7443V13.7526V13.7609V13.7692V13.7775V13.7857Z" stroke="currentColor"/><path d="M7.50001 3.5V6.71429M9.50001 3V5.5" stroke="currentColor" stroke-linecap="round" stroke-linejoin="round"/><path d="M11.6428 3.5L14.2857 3.5C16.771 3.5 18.7857 5.51472 18.7857 8V8" stroke="currentColor" stroke-linecap="round" stroke-linejoin="round"/><path d="M8.49999 18C8.49999 17.1716 9.17157 16.5 9.99999 16.5H14C14.8284 16.5 15.5 17.1716 15.5 18C15.5 18.2761 15.2761 18.5 15 18.5H8.99999C8.72385 18.5 8.49999 18.2761 8.49999 18Z" stroke="currentColor"/><path d="M9.85714 16.2861V18.429M14.1428 16.2861V18.429M12 16.2861V18.429" stroke="currentColor"/><path d="M19.5 13.9996C19.2239 13.9996 19 14.2234 19 14.4996C19 14.7757 19.2239 14.9996 19.5 14.9996V13.9996ZM19.5 10.7139H19.6429V9.71387H19.5V10.7139ZM21.1429 12.2139V12.4996H22.1429V12.2139H21.1429ZM19.6429 13.9996H19.5V14.9996H19.6429V13.9996ZM21.1429 12.4996C21.1429 13.328 20.4713 13.9996 19.6429 13.9996V14.9996C21.0236 14.9996 22.1429 13.8803 22.1429 12.4996H21.1429ZM19.6429 10.7139C20.4713 10.7139 21.1429 11.3854 21.1429 12.2139H22.1429C22.1429 10.8332 21.0236 9.71387 19.6429 9.71387V10.7139Z" fill="currentColor"/><path d="M4.5 13.9996C4.77614 13.9996 5 14.2234 5 14.4996C5 14.7757 4.77614 14.9996 4.5 14.9996V13.9996ZM4.5 10.7139H4.35714V9.71387H4.5V10.7139ZM2.85714 12.2139V12.4996H1.85714V12.2139H2.85714ZM4.35714 13.9996H4.5V14.9996H4.35714V13.9996ZM2.85714 12.4996C2.85714 13.328 3.52872 13.9996 4.35714 13.9996V14.9996C2.97643 14.9996 1.85714 13.8803 1.85714 12.4996H2.85714ZM4.35714 10.7139C3.52872 10.7139 2.85714 11.3854 2.85714 12.2139H1.85714C1.85714 10.8332 2.97643 9.71387 4.35714 9.71387V10.7139Z" fill="currentColor"/><path d="M17 11.5C17 12.3284 16.3284 13 15.5 13C14.6716 13 14 12.3284 14 11.5C14 11.1077 14.1459 10.894 14.3596 10.7541C14.6058 10.593 14.9936 10.5 15.5 10.5C16.0064 10.5 16.3942 10.593 16.6403 10.7541C16.854 10.894 17 11.1077 17 11.5ZM9.99999 11.5C9.99999 12.3284 9.32842 13 8.49999 13C7.67156 13 6.99999 12.3284 6.99999 11.5C6.99999 11.4196 7.00616 11.3674 7.01229 11.3354C7.02672 11.3348 7.04498 11.3346 7.06773 11.3355C7.1833 11.3396 7.31914 11.3624 7.51223 11.3948C7.55232 11.4015 7.59487 11.4087 7.64022 11.4161C7.88444 11.4564 8.18096 11.5 8.49999 11.5C8.81902 11.5 9.11553 11.4564 9.35976 11.4161C9.40511 11.4087 9.44766 11.4015 9.48774 11.3948C9.68084 11.3624 9.81668 11.3396 9.93225 11.3355C9.955 11.3346 9.97326 11.3348 9.98769 11.3354C9.99382 11.3674 9.99999 11.4196 9.99999 11.5ZM6.96572 11.3408C6.9657 11.3408 6.96614 11.3406 6.96709 11.3404L6.96572 11.3408ZM10.0343 11.3408C10.0342 11.3408 10.0338 11.3407 10.0329 11.3404L10.0343 11.3408Z" stroke="currentColor"/></svg>

<svg xmlns="http://www.w3.org/2000/svg" fill="none" viewBox="0 0 24 24" width="1em" height="1em"><path stroke="currentColor" d="M19.5 13.786c0 2.33-1.113 4.255-2.628 5.61C15.347 20.758 13.461 21.5 12 21.5c-1.476 0-3.362-.664-4.878-1.976C5.619 18.222 4.5 16.3 4.5 13.786v-.653c-.001-1.724-.002-3.195.068-4.454.079-1.419.246-2.521.581-3.379.328-.839.815-1.443 1.559-1.876.76-.443 1.823-.728 3.332-.852.755-.062 1.45.594 1.785 1.561.754 2.176 2.793 3.329 6.131 3.637.875.08 1.544.771 1.544 1.587v4.429Z"/><path stroke="currentColor" stroke-linecap="round" stroke-linejoin="round" d="M7.5 3.5v3.214M9.5 3v2.5m2.143-2h2.643a4.5 4.5 0 0 1 4.5 4.5v0"/><path stroke="currentColor" d="M8.5 18a1.5 1.5 0 0 1 1.5-1.5h4a1.5 1.5 0 0 1 1.5 1.5.5.5 0 0 1-.5.5H9a.5.5 0 0 1-.5-.5Zm1.357-1.714v2.143m4.286-2.143v2.143M12 16.286v2.143"/><path fill="currentColor" d="M19.5 14a.5.5 0 1 0 0 1v-1Zm0-3.286h.143v-1H19.5v1Zm1.643 1.5v.286h1v-.286h-1ZM19.643 14H19.5v1h.143v-1Zm1.5-1.5a1.5 1.5 0 0 1-1.5 1.5v1a2.5 2.5 0 0 0 2.5-2.5h-1Zm-1.5-1.786a1.5 1.5 0 0 1 1.5 1.5h1a2.5 2.5 0 0 0-2.5-2.5v1ZM4.5 14a.5.5 0 1 1 0 1v-1Zm0-3.286h-.143v-1H4.5v1Zm-1.643 1.5v.286h-1v-.286h1ZM4.357 14H4.5v1h-.143v-1Zm-1.5-1.5a1.5 1.5 0 0 0 1.5 1.5v1a2.5 2.5 0 0 1-2.5-2.5h1Zm1.5-1.786a1.5 1.5 0 0 0-1.5 1.5h-1a2.5 2.5 0 0 1 2.5-2.5v1Z"/><path stroke="currentColor" d="M17 11.5a1.5 1.5 0 0 1-3 0c0-.392.146-.606.36-.746.246-.161.634-.254 1.14-.254.506 0 .894.093 1.14.254.214.14.36.354.36.746Zm-7 0a1.5 1.5 0 0 1-3 0c0-.08.006-.133.012-.165h.056a3.8 3.8 0 0 1 .444.06l.128.021c.244.04.541.084.86.084.319 0 .616-.044.86-.084l.128-.021a3.8 3.8 0 0 1 .444-.06h.056A.892.892 0 0 1 10 11.5Zm-3.034-.16h.001-.001Zm3.068 0h-.001.001Z"/></svg>
